( This file is generated by LaserGrayscales v0.1.0.0 at 2024-10-12 23:10 )
( Test and check the content before you use it. Use at your own risk, protect your eyes! )

( This file will test the effect of your laser at power levels 1 through 255 at speeds ranging from 1 mm/s to 70 mm/s or 60 mm/min to 4200 mm/min. )
( This is a good way to see how your laser will react to different materials at different speeds & power levels. )

(   >>> ALWAYS WEAR PROPER EYE PROTECTION WHEN WORKING WITH LASERS <<<   )

( This file is generated for use with Stepcraft machines using UCCNC. You may be able to use it on other machines. )
( Calling a subroutine is done with 'M98 P100 L1' )
( M98, subroutine call, P is the subroutine label, L is the times of repeating the call. )
( M99, return from subroutine. )

( Controling the laser is done with 'M10 Qxxx' or 'M11' )
( M3, Laser operation enabled )
( M5, Laser operation disabled )
( M10, Laser on with parameter Q for intensity with xxx in the range of 0 to 255 which is 0 to 100 percent. )
( M11, Laser off. )

( This test uses X from 0 to 153.6 and Y from 0 to 140 )

( Header start )
G90    ( absolute positions )
M3     ( Laser operation enabled )
M10 Q0 ( Laser on, power 0 )
( Header end )

       ( X Outer loop: scale Power;  X = 0 - 153.6;  Q = 255 - 0, step 1 in max Watt:255 )
M10 Q0 ( Enable laser, power 0 )
G00 X0 Y0 F4200 ( go home )
M10 Q255
M98 P100 L1
M10 Q0
G00 X0.5 Y0 F4200
M10 Q254
M98 P100 L1
M10 Q0
G00 X1 Y0 F4200
M10 Q253
M98 P100 L1
M10 Q0
G00 X1.5 Y0 F4200
M10 Q252
M98 P100 L1
M10 Q0
G00 X2 Y0 F4200
M10 Q251
M98 P100 L1
M10 Q0
G00 X2.5 Y0 F4200
M10 Q250
M98 P100 L1
M10 Q0
G00 X3 Y0 F4200
M10 Q249
M98 P100 L1
M10 Q0
G00 X3.5 Y0 F4200
M10 Q248
M98 P100 L1
M10 Q0
G00 X4.8 Y0 F4200
M10 Q247
M98 P100 L1
M10 Q0
G00 X5.3 Y0 F4200
M10 Q246
M98 P100 L1
M10 Q0
G00 X5.8 Y0 F4200
M10 Q245
M98 P100 L1
M10 Q0
G00 X6.3 Y0 F4200
M10 Q244
M98 P100 L1
M10 Q0
G00 X6.8 Y0 F4200
M10 Q243
M98 P100 L1
M10 Q0
G00 X7.3 Y0 F4200
M10 Q242
M98 P100 L1
M10 Q0
G00 X7.8 Y0 F4200
M10 Q241
M98 P100 L1
M10 Q0
G00 X8.3 Y0 F4200
M10 Q240
M98 P100 L1
M10 Q0
G00 X9.6 Y0 F4200
M10 Q239
M98 P100 L1
M10 Q0
G00 X10.1 Y0 F4200
M10 Q238
M98 P100 L1
M10 Q0
G00 X10.6 Y0 F4200
M10 Q237
M98 P100 L1
M10 Q0
G00 X11.1 Y0 F4200
M10 Q236
M98 P100 L1
M10 Q0
G00 X11.6 Y0 F4200
M10 Q235
M98 P100 L1
M10 Q0
G00 X12.1 Y0 F4200
M10 Q234
M98 P100 L1
M10 Q0
G00 X12.6 Y0 F4200
M10 Q233
M98 P100 L1
M10 Q0
G00 X13.1 Y0 F4200
M10 Q232
M98 P100 L1
M10 Q0
G00 X14.4 Y0 F4200
M10 Q231
M98 P100 L1
M10 Q0
G00 X14.9 Y0 F4200
M10 Q230
M98 P100 L1
M10 Q0
G00 X15.4 Y0 F4200
M10 Q229
M98 P100 L1
M10 Q0
G00 X15.9 Y0 F4200
M10 Q228
M98 P100 L1
M10 Q0
G00 X16.4 Y0 F4200
M10 Q227
M98 P100 L1
M10 Q0
G00 X16.9 Y0 F4200
M10 Q226
M98 P100 L1
M10 Q0
G00 X17.4 Y0 F4200
M10 Q225
M98 P100 L1
M10 Q0
G00 X17.9 Y0 F4200
M10 Q224
M98 P100 L1
M10 Q0
G00 X19.2 Y0 F4200
M10 Q223
M98 P100 L1
M10 Q0
G00 X19.7 Y0 F4200
M10 Q222
M98 P100 L1
M10 Q0
G00 X20.2 Y0 F4200
M10 Q221
M98 P100 L1
M10 Q0
G00 X20.7 Y0 F4200
M10 Q220
M98 P100 L1
M10 Q0
G00 X21.2 Y0 F4200
M10 Q219
M98 P100 L1
M10 Q0
G00 X21.7 Y0 F4200
M10 Q218
M98 P100 L1
M10 Q0
G00 X22.2 Y0 F4200
M10 Q217
M98 P100 L1
M10 Q0
G00 X22.7 Y0 F4200
M10 Q216
M98 P100 L1
M10 Q0
G00 X24 Y0 F4200
M10 Q215
M98 P100 L1
M10 Q0
G00 X24.5 Y0 F4200
M10 Q214
M98 P100 L1
M10 Q0
G00 X25 Y0 F4200
M10 Q213
M98 P100 L1
M10 Q0
G00 X25.5 Y0 F4200
M10 Q212
M98 P100 L1
M10 Q0
G00 X26 Y0 F4200
M10 Q211
M98 P100 L1
M10 Q0
G00 X26.5 Y0 F4200
M10 Q210
M98 P100 L1
M10 Q0
G00 X27 Y0 F4200
M10 Q209
M98 P100 L1
M10 Q0
G00 X27.5 Y0 F4200
M10 Q208
M98 P100 L1
M10 Q0
G00 X28.8 Y0 F4200
M10 Q207
M98 P100 L1
M10 Q0
G00 X29.3 Y0 F4200
M10 Q206
M98 P100 L1
M10 Q0
G00 X29.8 Y0 F4200
M10 Q205
M98 P100 L1
M10 Q0
G00 X30.3 Y0 F4200
M10 Q204
M98 P100 L1
M10 Q0
G00 X30.8 Y0 F4200
M10 Q203
M98 P100 L1
M10 Q0
G00 X31.3 Y0 F4200
M10 Q202
M98 P100 L1
M10 Q0
G00 X31.8 Y0 F4200
M10 Q201
M98 P100 L1
M10 Q0
G00 X32.3 Y0 F4200
M10 Q200
M98 P100 L1
M10 Q0
G00 X33.6 Y0 F4200
M10 Q199
M98 P100 L1
M10 Q0
G00 X34.1 Y0 F4200
M10 Q198
M98 P100 L1
M10 Q0
G00 X34.6 Y0 F4200
M10 Q197
M98 P100 L1
M10 Q0
G00 X35.1 Y0 F4200
M10 Q196
M98 P100 L1
M10 Q0
G00 X35.6 Y0 F4200
M10 Q195
M98 P100 L1
M10 Q0
G00 X36.1 Y0 F4200
M10 Q194
M98 P100 L1
M10 Q0
G00 X36.6 Y0 F4200
M10 Q193
M98 P100 L1
M10 Q0
G00 X37.1 Y0 F4200
M10 Q192
M98 P100 L1
M10 Q0
G00 X38.4 Y0 F4200
M10 Q191
M98 P100 L1
M10 Q0
G00 X38.9 Y0 F4200
M10 Q190
M98 P100 L1
M10 Q0
G00 X39.4 Y0 F4200
M10 Q189
M98 P100 L1
M10 Q0
G00 X39.9 Y0 F4200
M10 Q188
M98 P100 L1
M10 Q0
G00 X40.4 Y0 F4200
M10 Q187
M98 P100 L1
M10 Q0
G00 X40.9 Y0 F4200
M10 Q186
M98 P100 L1
M10 Q0
G00 X41.4 Y0 F4200
M10 Q185
M98 P100 L1
M10 Q0
G00 X41.9 Y0 F4200
M10 Q184
M98 P100 L1
M10 Q0
G00 X43.2 Y0 F4200
M10 Q183
M98 P100 L1
M10 Q0
G00 X43.7 Y0 F4200
M10 Q182
M98 P100 L1
M10 Q0
G00 X44.2 Y0 F4200
M10 Q181
M98 P100 L1
M10 Q0
G00 X44.7 Y0 F4200
M10 Q180
M98 P100 L1
M10 Q0
G00 X45.2 Y0 F4200
M10 Q179
M98 P100 L1
M10 Q0
G00 X45.7 Y0 F4200
M10 Q178
M98 P100 L1
M10 Q0
G00 X46.2 Y0 F4200
M10 Q177
M98 P100 L1
M10 Q0
G00 X46.7 Y0 F4200
M10 Q176
M98 P100 L1
M10 Q0
G00 X48 Y0 F4200
M10 Q175
M98 P100 L1
M10 Q0
G00 X48.5 Y0 F4200
M10 Q174
M98 P100 L1
M10 Q0
G00 X49 Y0 F4200
M10 Q173
M98 P100 L1
M10 Q0
G00 X49.5 Y0 F4200
M10 Q172
M98 P100 L1
M10 Q0
G00 X50 Y0 F4200
M10 Q171
M98 P100 L1
M10 Q0
G00 X50.5 Y0 F4200
M10 Q170
M98 P100 L1
M10 Q0
G00 X51 Y0 F4200
M10 Q169
M98 P100 L1
M10 Q0
G00 X51.5 Y0 F4200
M10 Q168
M98 P100 L1
M10 Q0
G00 X52.8 Y0 F4200
M10 Q167
M98 P100 L1
M10 Q0
G00 X53.3 Y0 F4200
M10 Q166
M98 P100 L1
M10 Q0
G00 X53.8 Y0 F4200
M10 Q165
M98 P100 L1
M10 Q0
G00 X54.3 Y0 F4200
M10 Q164
M98 P100 L1
M10 Q0
G00 X54.8 Y0 F4200
M10 Q163
M98 P100 L1
M10 Q0
G00 X55.3 Y0 F4200
M10 Q162
M98 P100 L1
M10 Q0
G00 X55.8 Y0 F4200
M10 Q161
M98 P100 L1
M10 Q0
G00 X56.3 Y0 F4200
M10 Q160
M98 P100 L1
M10 Q0
G00 X57.6 Y0 F4200
M10 Q159
M98 P100 L1
M10 Q0
G00 X58.1 Y0 F4200
M10 Q158
M98 P100 L1
M10 Q0
G00 X58.6 Y0 F4200
M10 Q157
M98 P100 L1
M10 Q0
G00 X59.1 Y0 F4200
M10 Q156
M98 P100 L1
M10 Q0
G00 X59.6 Y0 F4200
M10 Q155
M98 P100 L1
M10 Q0
G00 X60.1 Y0 F4200
M10 Q154
M98 P100 L1
M10 Q0
G00 X60.6 Y0 F4200
M10 Q153
M98 P100 L1
M10 Q0
G00 X61.1 Y0 F4200
M10 Q152
M98 P100 L1
M10 Q0
G00 X62.4 Y0 F4200
M10 Q151
M98 P100 L1
M10 Q0
G00 X62.9 Y0 F4200
M10 Q150
M98 P100 L1
M10 Q0
G00 X63.4 Y0 F4200
M10 Q149
M98 P100 L1
M10 Q0
G00 X63.9 Y0 F4200
M10 Q148
M98 P100 L1
M10 Q0
G00 X64.4 Y0 F4200
M10 Q147
M98 P100 L1
M10 Q0
G00 X64.9 Y0 F4200
M10 Q146
M98 P100 L1
M10 Q0
G00 X65.4 Y0 F4200
M10 Q145
M98 P100 L1
M10 Q0
G00 X65.9 Y0 F4200
M10 Q144
M98 P100 L1
M10 Q0
G00 X67.2 Y0 F4200
M10 Q143
M98 P100 L1
M10 Q0
G00 X67.7 Y0 F4200
M10 Q142
M98 P100 L1
M10 Q0
G00 X68.2 Y0 F4200
M10 Q141
M98 P100 L1
M10 Q0
G00 X68.7 Y0 F4200
M10 Q140
M98 P100 L1
M10 Q0
G00 X69.2 Y0 F4200
M10 Q139
M98 P100 L1
M10 Q0
G00 X69.7 Y0 F4200
M10 Q138
M98 P100 L1
M10 Q0
G00 X70.2 Y0 F4200
M10 Q137
M98 P100 L1
M10 Q0
G00 X70.7 Y0 F4200
M10 Q136
M98 P100 L1
M10 Q0
G00 X72 Y0 F4200
M10 Q135
M98 P100 L1
M10 Q0
G00 X72.5 Y0 F4200
M10 Q134
M98 P100 L1
M10 Q0
G00 X73 Y0 F4200
M10 Q133
M98 P100 L1
M10 Q0
G00 X73.5 Y0 F4200
M10 Q132
M98 P100 L1
M10 Q0
G00 X74 Y0 F4200
M10 Q131
M98 P100 L1
M10 Q0
G00 X74.5 Y0 F4200
M10 Q130
M98 P100 L1
M10 Q0
G00 X75 Y0 F4200
M10 Q129
M98 P100 L1
M10 Q0
G00 X75.5 Y0 F4200
M10 Q128
M98 P100 L1
M10 Q0
G00 X76.8 Y0 F4200
M10 Q127
M98 P100 L1
M10 Q0
G00 X77.3 Y0 F4200
M10 Q126
M98 P100 L1
M10 Q0
G00 X77.8 Y0 F4200
M10 Q125
M98 P100 L1
M10 Q0
G00 X78.3 Y0 F4200
M10 Q124
M98 P100 L1
M10 Q0
G00 X78.8 Y0 F4200
M10 Q123
M98 P100 L1
M10 Q0
G00 X79.3 Y0 F4200
M10 Q122
M98 P100 L1
M10 Q0
G00 X79.8 Y0 F4200
M10 Q121
M98 P100 L1
M10 Q0
G00 X80.3 Y0 F4200
M10 Q120
M98 P100 L1
M10 Q0
G00 X81.6 Y0 F4200
M10 Q119
M98 P100 L1
M10 Q0
G00 X82.1 Y0 F4200
M10 Q118
M98 P100 L1
M10 Q0
G00 X82.6 Y0 F4200
M10 Q117
M98 P100 L1
M10 Q0
G00 X83.1 Y0 F4200
M10 Q116
M98 P100 L1
M10 Q0
G00 X83.6 Y0 F4200
M10 Q115
M98 P100 L1
M10 Q0
G00 X84.1 Y0 F4200
M10 Q114
M98 P100 L1
M10 Q0
G00 X84.6 Y0 F4200
M10 Q113
M98 P100 L1
M10 Q0
G00 X85.1 Y0 F4200
M10 Q112
M98 P100 L1
M10 Q0
G00 X86.4 Y0 F4200
M10 Q111
M98 P100 L1
M10 Q0
G00 X86.9 Y0 F4200
M10 Q110
M98 P100 L1
M10 Q0
G00 X87.4 Y0 F4200
M10 Q109
M98 P100 L1
M10 Q0
G00 X87.9 Y0 F4200
M10 Q108
M98 P100 L1
M10 Q0
G00 X88.4 Y0 F4200
M10 Q107
M98 P100 L1
M10 Q0
G00 X88.9 Y0 F4200
M10 Q106
M98 P100 L1
M10 Q0
G00 X89.4 Y0 F4200
M10 Q105
M98 P100 L1
M10 Q0
G00 X89.9 Y0 F4200
M10 Q104
M98 P100 L1
M10 Q0
G00 X91.2 Y0 F4200
M10 Q103
M98 P100 L1
M10 Q0
G00 X91.7 Y0 F4200
M10 Q102
M98 P100 L1
M10 Q0
G00 X92.2 Y0 F4200
M10 Q101
M98 P100 L1
M10 Q0
G00 X92.7 Y0 F4200
M10 Q100
M98 P100 L1
M10 Q0
G00 X93.2 Y0 F4200
M10 Q99
M98 P100 L1
M10 Q0
G00 X93.7 Y0 F4200
M10 Q98
M98 P100 L1
M10 Q0
G00 X94.2 Y0 F4200
M10 Q97
M98 P100 L1
M10 Q0
G00 X94.7 Y0 F4200
M10 Q96
M98 P100 L1
M10 Q0
G00 X96 Y0 F4200
M10 Q95
M98 P100 L1
M10 Q0
G00 X96.5 Y0 F4200
M10 Q94
M98 P100 L1
M10 Q0
G00 X97 Y0 F4200
M10 Q93
M98 P100 L1
M10 Q0
G00 X97.5 Y0 F4200
M10 Q92
M98 P100 L1
M10 Q0
G00 X98 Y0 F4200
M10 Q91
M98 P100 L1
M10 Q0
G00 X98.5 Y0 F4200
M10 Q90
M98 P100 L1
M10 Q0
G00 X99 Y0 F4200
M10 Q89
M98 P100 L1
M10 Q0
G00 X99.5 Y0 F4200
M10 Q88
M98 P100 L1
M10 Q0
G00 X100.8 Y0 F4200
M10 Q87
M98 P100 L1
M10 Q0
G00 X101.3 Y0 F4200
M10 Q86
M98 P100 L1
M10 Q0
G00 X101.8 Y0 F4200
M10 Q85
M98 P100 L1
M10 Q0
G00 X102.3 Y0 F4200
M10 Q84
M98 P100 L1
M10 Q0
G00 X102.8 Y0 F4200
M10 Q83
M98 P100 L1
M10 Q0
G00 X103.3 Y0 F4200
M10 Q82
M98 P100 L1
M10 Q0
G00 X103.8 Y0 F4200
M10 Q81
M98 P100 L1
M10 Q0
G00 X104.3 Y0 F4200
M10 Q80
M98 P100 L1
M10 Q0
G00 X105.6 Y0 F4200
M10 Q79
M98 P100 L1
M10 Q0
G00 X106.1 Y0 F4200
M10 Q78
M98 P100 L1
M10 Q0
G00 X106.6 Y0 F4200
M10 Q77
M98 P100 L1
M10 Q0
G00 X107.1 Y0 F4200
M10 Q76
M98 P100 L1
M10 Q0
G00 X107.6 Y0 F4200
M10 Q75
M98 P100 L1
M10 Q0
G00 X108.1 Y0 F4200
M10 Q74
M98 P100 L1
M10 Q0
G00 X108.6 Y0 F4200
M10 Q73
M98 P100 L1
M10 Q0
G00 X109.1 Y0 F4200
M10 Q72
M98 P100 L1
M10 Q0
G00 X110.4 Y0 F4200
M10 Q71
M98 P100 L1
M10 Q0
G00 X110.9 Y0 F4200
M10 Q70
M98 P100 L1
M10 Q0
G00 X111.4 Y0 F4200
M10 Q69
M98 P100 L1
M10 Q0
G00 X111.9 Y0 F4200
M10 Q68
M98 P100 L1
M10 Q0
G00 X112.4 Y0 F4200
M10 Q67
M98 P100 L1
M10 Q0
G00 X112.9 Y0 F4200
M10 Q66
M98 P100 L1
M10 Q0
G00 X113.4 Y0 F4200
M10 Q65
M98 P100 L1
M10 Q0
G00 X113.9 Y0 F4200
M10 Q64
M98 P100 L1
M10 Q0
G00 X115.2 Y0 F4200
M10 Q63
M98 P100 L1
M10 Q0
G00 X115.7 Y0 F4200
M10 Q62
M98 P100 L1
M10 Q0
G00 X116.2 Y0 F4200
M10 Q61
M98 P100 L1
M10 Q0
G00 X116.7 Y0 F4200
M10 Q60
M98 P100 L1
M10 Q0
G00 X117.2 Y0 F4200
M10 Q59
M98 P100 L1
M10 Q0
G00 X117.7 Y0 F4200
M10 Q58
M98 P100 L1
M10 Q0
G00 X118.2 Y0 F4200
M10 Q57
M98 P100 L1
M10 Q0
G00 X118.7 Y0 F4200
M10 Q56
M98 P100 L1
M10 Q0
G00 X120 Y0 F4200
M10 Q55
M98 P100 L1
M10 Q0
G00 X120.5 Y0 F4200
M10 Q54
M98 P100 L1
M10 Q0
G00 X121 Y0 F4200
M10 Q53
M98 P100 L1
M10 Q0
G00 X121.5 Y0 F4200
M10 Q52
M98 P100 L1
M10 Q0
G00 X122 Y0 F4200
M10 Q51
M98 P100 L1
M10 Q0
G00 X122.5 Y0 F4200
M10 Q50
M98 P100 L1
M10 Q0
G00 X123 Y0 F4200
M10 Q49
M98 P100 L1
M10 Q0
G00 X123.5 Y0 F4200
M10 Q48
M98 P100 L1
M10 Q0
G00 X124.8 Y0 F4200
M10 Q47
M98 P100 L1
M10 Q0
G00 X125.3 Y0 F4200
M10 Q46
M98 P100 L1
M10 Q0
G00 X125.8 Y0 F4200
M10 Q45
M98 P100 L1
M10 Q0
G00 X126.3 Y0 F4200
M10 Q44
M98 P100 L1
M10 Q0
G00 X126.8 Y0 F4200
M10 Q43
M98 P100 L1
M10 Q0
G00 X127.3 Y0 F4200
M10 Q42
M98 P100 L1
M10 Q0
G00 X127.8 Y0 F4200
M10 Q41
M98 P100 L1
M10 Q0
G00 X128.3 Y0 F4200
M10 Q40
M98 P100 L1
M10 Q0
G00 X129.6 Y0 F4200
M10 Q39
M98 P100 L1
M10 Q0
G00 X130.1 Y0 F4200
M10 Q38
M98 P100 L1
M10 Q0
G00 X130.6 Y0 F4200
M10 Q37
M98 P100 L1
M10 Q0
G00 X131.1 Y0 F4200
M10 Q36
M98 P100 L1
M10 Q0
G00 X131.6 Y0 F4200
M10 Q35
M98 P100 L1
M10 Q0
G00 X132.1 Y0 F4200
M10 Q34
M98 P100 L1
M10 Q0
G00 X132.6 Y0 F4200
M10 Q33
M98 P100 L1
M10 Q0
G00 X133.1 Y0 F4200
M10 Q32
M98 P100 L1
M10 Q0
G00 X134.4 Y0 F4200
M10 Q31
M98 P100 L1
M10 Q0
G00 X134.9 Y0 F4200
M10 Q30
M98 P100 L1
M10 Q0
G00 X135.4 Y0 F4200
M10 Q29
M98 P100 L1
M10 Q0
G00 X135.9 Y0 F4200
M10 Q28
M98 P100 L1
M10 Q0
G00 X136.4 Y0 F4200
M10 Q27
M98 P100 L1
M10 Q0
G00 X136.9 Y0 F4200
M10 Q26
M98 P100 L1
M10 Q0
G00 X137.4 Y0 F4200
M10 Q25
M98 P100 L1
M10 Q0
G00 X137.9 Y0 F4200
M10 Q24
M98 P100 L1
M10 Q0
G00 X139.2 Y0 F4200
M10 Q23
M98 P100 L1
M10 Q0
G00 X139.7 Y0 F4200
M10 Q22
M98 P100 L1
M10 Q0
G00 X140.2 Y0 F4200
M10 Q21
M98 P100 L1
M10 Q0
G00 X140.7 Y0 F4200
M10 Q20
M98 P100 L1
M10 Q0
G00 X141.2 Y0 F4200
M10 Q19
M98 P100 L1
M10 Q0
G00 X141.7 Y0 F4200
M10 Q18
M98 P100 L1
M10 Q0
G00 X142.2 Y0 F4200
M10 Q17
M98 P100 L1
M10 Q0
G00 X142.7 Y0 F4200
M10 Q16
M98 P100 L1
M10 Q0
G00 X144 Y0 F4200
M10 Q15
M98 P100 L1
M10 Q0
G00 X144.5 Y0 F4200
M10 Q14
M98 P100 L1
M10 Q0
G00 X145 Y0 F4200
M10 Q13
M98 P100 L1
M10 Q0
G00 X145.5 Y0 F4200
M10 Q12
M98 P100 L1
M10 Q0
G00 X146 Y0 F4200
M10 Q11
M98 P100 L1
M10 Q0
G00 X146.5 Y0 F4200
M10 Q10
M98 P100 L1
M10 Q0
G00 X147 Y0 F4200
M10 Q9
M98 P100 L1
M10 Q0
G00 X147.5 Y0 F4200
M10 Q8
M98 P100 L1
M10 Q0
G00 X148.8 Y0 F4200
M10 Q7
M98 P100 L1
M10 Q0
G00 X149.3 Y0 F4200
M10 Q6
M98 P100 L1
M10 Q0
G00 X149.8 Y0 F4200
M10 Q5
M98 P100 L1
M10 Q0
G00 X150.3 Y0 F4200
M10 Q4
M98 P100 L1
M10 Q0
G00 X150.8 Y0 F4200
M10 Q3
M98 P100 L1
M10 Q0
G00 X151.3 Y0 F4200
M10 Q2
M98 P100 L1
M10 Q0
G00 X151.8 Y0 F4200
M10 Q1
M98 P100 L1
M10 Q0
G00 X152.3 Y0 F4200
M10 Q0
M98 P100 L1
M10 Q0
G00 X153.6 Y0 F4200

( Footer )
M11    ( Laser off )
M5     ( Laser operation disabled )
G0 X0 Y0 Z0 ( go home )
M30    ( Program end, rewind )
( Footer end )

O100   ( subroutine begin label 100, run one line from current point. )
       ( Y Inner loop: scale Speed;  Y = 0 - 140;  F = 60 - 4200, step 60 in mm/min )
G1 Y2 F60
G1 Y4 F120
G1 Y6 F180
G1 Y8 F240
G1 Y10 F300
G1 Y12 F360
G1 Y14 F420
G1 Y16 F480
G1 Y18 F540
G1 Y20 F600
G1 Y22 F660
G1 Y24 F720
G1 Y26 F780
G1 Y28 F840
G1 Y30 F900
G1 Y32 F960
G1 Y34 F1020
G1 Y36 F1080
G1 Y38 F1140
G1 Y40 F1200
G1 Y42 F1260
G1 Y44 F1320
G1 Y46 F1380
G1 Y48 F1440
G1 Y50 F1500
G1 Y52 F1560
G1 Y54 F1620
G1 Y56 F1680
G1 Y58 F1740
G1 Y60 F1800
G1 Y62 F1860
G1 Y64 F1920
G1 Y66 F1980
G1 Y68 F2040
G1 Y70 F2100
G1 Y72 F2160
G1 Y74 F2220
G1 Y76 F2280
G1 Y78 F2340
G1 Y80 F2400
G1 Y82 F2460
G1 Y84 F2520
G1 Y86 F2580
G1 Y88 F2640
G1 Y90 F2700
G1 Y92 F2760
G1 Y94 F2820
G1 Y96 F2880
G1 Y98 F2940
G1 Y100 F3000
G1 Y102 F3060
G1 Y104 F3120
G1 Y106 F3180
G1 Y108 F3240
G1 Y110 F3300
G1 Y112 F3360
G1 Y114 F3420
G1 Y116 F3480
G1 Y118 F3540
G1 Y120 F3600
G1 Y122 F3660
G1 Y124 F3720
G1 Y126 F3780
G1 Y128 F3840
G1 Y130 F3900
G1 Y132 F3960
G1 Y134 F4020
G1 Y136 F4080
G1 Y138 F4140
G1 Y140 F4200
M99    ( return, subroutine label 100 end )
